packages/picasso/src/Icon/svg/partTime16.svg

<?xml version="1.0" encoding="UTF-8"?>
<svg width="16px" height="16px" viewBox="0 0 16 16" version="1.1" xmlns="http://www.w3.org/2000/svg" xmlns:xlink="http://www.w3.org/1999/xlink">
    <!-- Generator: sketchtool 63.1 (101010) - https://sketch.com -->
    <title>5be88a53-3342-454c-b1bd-9b7516697367@1.00x</title>
    <desc>Created with sketchtool.</desc>
    <defs>
        <path d="M7.5,0 C11.6421356,0 15,3.35786438 15,7.5 C15,7.66821373 14.9944622,7.83513403 14.983559,8.00058855 L13.9810299,8.00033196 C13.9936,7.8352028 14,7.66834881 14,7.5 C14,3.91014913 11.0898509,1 7.5,1 C3.91014913,1 1,3.91014913 1,7.5 C1,11.0898509 3.91014913,14 7.5,14 C7.66834881,14 7.8352028,13.9936 8.00033196,13.9810299 L8.00058855,14.983559 C7.83513403,14.9944622 7.66821373,15 7.5,15 C3.35786438,15 0,11.6421356 0,7.5 C0,3.35786438 3.35786438,0 7.5,0 Z M11.62,9.615 C12.555,9.615 12.955,10.495 12.955,11.335 C12.955,12.175 12.555,13.06 11.62,13.06 C10.685,13.06 10.285,12.175 10.285,11.335 C10.285,10.495 10.685,9.615 11.62,9.615 Z M8.54,9.615 C9.185,9.615 9.75,9.98 9.75,10.645 C9.75,11.178 9.32562222,11.6621778 8.62984296,12.2212163 L8.62984296,12.2212163 L8.29,12.485 L9.77,12.485 L9.77,13 L7.355,13 L7.355,12.54 C8.65,11.56 9.155,11.125 9.155,10.645 C9.155,10.295 8.855,10.135 8.55,10.135 C8.16,10.135 7.86,10.295 7.65,10.535 L7.65,10.535 L7.31,10.15 C7.605,9.795 8.075,9.615 8.54,9.615 Z M14.025,9.665 L14.025,10.915 C14.185,10.725 14.5,10.525 14.88,10.525 C15.4,10.525 15.66,10.795 15.66,11.29 L15.66,13 L15.135,13 L15.135,11.48 C15.135,11.105 14.94,10.99 14.645,10.99 C14.38,10.99 14.15,11.15 14.025,11.315 L14.025,13 L13.5,13 L13.5,9.665 L14.025,9.665 Z M11.62,10.135 C11.075,10.135 10.88,10.7 10.88,11.335 C10.88,11.97 11.075,12.54 11.62,12.54 C12.165,12.54 12.36,11.97 12.36,11.335 C12.36,10.7 12.165,10.135 11.62,10.135 Z M8,2 L8,8 L4,8 L4,7 L7,7 L7,2 L8,2 Z" id="path-1"></path>
    </defs>
    <g id="Symbols" stroke="none" stroke-width="1" fill="none" fill-rule="evenodd">
        <g id="Icons-/-Date-and-Time-/-16-/-Availability-Part-Time">
            <mask id="mask-2" fill="white">
                <use xlink:href="#path-1"></use>
            </mask>
            <use id="Combined-Shape" xlink:href="#path-1"></use>
            <g id="Colors-/-305-Dark-Gray" mask="url(#mask-2)">
                <rect id="Rectangle" x="0" y="0" width="16" height="16"></rect>
            </g>
        </g>
    </g>
</svg>

<svg fill="none" xmlns="http://www.w3.org/2000/svg" viewBox="0 0 16 16">
  <path fill-rule="evenodd" clip-rule="evenodd" d="M15 7.5c0 .16801-.0055.33474-.0164.5h-1.0025c.0125-.16502.0189-.33176.0189-.5C14 3.91015 11.0899 1 7.5 1 3.91015 1 1 3.91015 1 7.5 1 11.0899 3.91015 14 7.5 14c.16824 0 .33498-.0064.5-.0189v1.0025c-.16526.0109-.33199.0164-.5.0164C3.35786 15 0 11.6421 0 7.5 0 3.35786 3.35786 0 7.5 0 11.6421 0 15 3.35786 15 7.5ZM8 7v1H4V7h3V2h1v5Zm1.77 6v-.515H8.29l.33984-.2638C9.32562 11.6622 9.75 11.178 9.75 10.645c0-.665-.565-1.03-1.21-1.03-.465 0-.935.18-1.23.535l.34.385c.21-.24.51-.4.9-.4.305 0 .605.16.605.51 0 .48-.505.915-1.8 1.895V13H9.77Zm1.85.06c.935 0 1.335-.885 1.335-1.725 0-.84-.4-1.72-1.335-1.72-.935 0-1.335.88-1.335 1.72s.4 1.725 1.335 1.725Zm-.74-1.725c0 .635.195 1.205.74 1.205.545 0 .74-.57.74-1.205 0-.635-.195-1.2-.74-1.2-.545 0-.74.565-.74 1.2ZM15.66 13h-.525v-1.52c0-.375-.195-.49-.49-.49-.265 0-.495.16-.62.325V13H13.5V9.665h.525v1.25c.16-.19.475-.39.855-.39.52 0 .78.27.78.765V13Z" fill="#455065"/>
</svg>
